Numix-GalliumOS/32/mimetypes/application-presentation.svg

<?xml version="1.0" encoding="UTF-8" standalone="no"?>
<svg
   xmlns:dc="http://purl.org/dc/elements/1.1/"
   xmlns:cc="http://creativecommons.org/ns#"
   xmlns:rdf="http://www.w3.org/1999/02/22-rdf-syntax-ns#"
   xmlns:svg="http://www.w3.org/2000/svg"
   xmlns="http://www.w3.org/2000/svg"
   xmlns:sodipodi="http://sodipodi.sourceforge.net/DTD/sodipodi-0.dtd"
   xmlns:inkscape="http://www.inkscape.org/namespaces/inkscape"
   width="32"
   height="32"
   viewBox="0 0 32 32"
   id="svg2"
   version="1.1"
   inkscape:version="0.48.5 r10040"
   sodipodi:docname="application-presentation.svg">
  <metadata
     id="metadata26">
    <rdf:RDF>
      <cc:Work
         rdf:about="">
        <dc:format>image/svg+xml</dc:format>
        <dc:type
           rdf:resource="http://purl.org/dc/dcmitype/StillImage" />
      </cc:Work>
    </rdf:RDF>
  </metadata>
  <defs
     id="defs24" />
  <sodipodi:namedview
     pagecolor="#ffffff"
     bordercolor="#666666"
     borderopacity="1"
     objecttolerance="10"
     gridtolerance="10"
     guidetolerance="10"
     inkscape:pageopacity="0"
     inkscape:pageshadow="2"
     inkscape:window-width="1280"
     inkscape:window-height="970"
     id="namedview22"
     showgrid="true"
     inkscape:zoom="20.85965"
     inkscape:cx="17.810952"
     inkscape:cy="13.654717"
     inkscape:window-x="0"
     inkscape:window-y="0"
     inkscape:window-maximized="1"
     inkscape:current-layer="svg2">
    <inkscape:grid
       type="xygrid"
       id="grid3054" />
  </sodipodi:namedview>
  <path
     style="fill:#d14626;fill-opacity:1"
     d="M 5.335888,2.97e-4 C 4.648414,3.12e-4 4,0.676788 4,1.394032 L 4,30.606268 C 4,31.282757 4.687474,32 5.335888,32 l 21.327332,0 c 0.648414,0 1.335888,-0.717243 1.335888,-1.393732 L 28,9 19,0 z"
     id="path4-1"
     inkscape:connector-curvature="0"
     sodipodi:nodetypes="ssssssccs" />
  <path
     style="fill:#000000;fill-opacity:0.19599998"
     d="m 21,9 7,7 0,-7 z"
     id="path6-4"
     inkscape:connector-curvature="0"
     sodipodi:nodetypes="cccc" />
  <path
     style="fill:#ffffff;fill-opacity:0.39200003"
     d="M 19.000306,2.97e-4 27.9919,9 20.378638,9 C 19.705687,9 19.000306,8.2865104 19.000306,7.6135598 z"
     id="path8-6"
     inkscape:connector-curvature="0"
     sodipodi:nodetypes="ccssc" />
  <path
     style="fill:#ffffff"
     inkscape:connector-curvature="0"
     id="path3009"
     d="m 8,12 5,0 0,3 -5,0 z" />
  <path
     style="fill:#ffffff"
     inkscape:connector-curvature="0"
     id="path3011"
     d="m 8,17 5,0 0,3 -5,0 z" />
  <path
     style="fill:#ffffff"
     inkscape:connector-curvature="0"
     id="path3013"
     d="m 8,22 16,0 0,1 -16,0 z" />
  <path
     style="fill:#ffffff"
     inkscape:connector-curvature="0"
     id="path3015"
     d="M 20,10.992539 20,15 l 4,0 c 0,-2.214356 -1.791478,-4.007461 -4,-4.007461 z" />
  <path
     style="fill:#ffffff"
     inkscape:connector-curvature="0"
     id="path3017"
     d="M 19.001814,12 C 16.792291,12 15,13.789768 15,16 c 0,2.210233 1.792291,4 4.001814,4 C 21.211338,20 23,18.210233 23,16 l -3.998186,0 z" />
</svg>

<svg xmlns="http://www.w3.org/2000/svg" viewBox="0 0 32 32">
 <path d="m 5.336 0 c -0.687 0 -1.336 0.676 -1.336 1.394 l 0 29.21 c 0 0.676 0.687 1.394 1.336 1.394 l 21.327 0 c 0.648 0 1.336 -0.717 1.336 -1.394 l 0.001 -21.606 -9 -9 z" style="fill:#d14626;fill-opacity:1"/>
 <path d="m 21 9 7 7 0 -7 z" style="fill:#000;fill-opacity:0.196"/>
 <path d="m 19 0 8.992 9 -7.613 0 c -0.673 0 -1.378 -0.713 -1.378 -1.386 z" style="fill:#fff;fill-opacity:0.392"/>
 <path d="m 8 12 5 0 0 3 -5 0 z" style="fill:#fff"/>
 <path d="m 8 17 5 0 0 3 -5 0 z" style="fill:#fff"/>
 <path d="m 8 22 16 0 0 1 -16 0 z" style="fill:#fff"/>
 <path d="m 20 10.993 0 4.01 l 4 0 c 0 -2.214 -1.791 -4.01 -4 -4.01 z" style="fill:#fff"/>
 <path d="m 19 12 c -2.21 0 -4 1.79 -4 4 c 0 2.21 1.792 4 4 4 c 2.21 0 3.998 -1.79 3.998 -4 l -3.998 0 z" style="fill:#fff"/>
</svg>
